X: 631
T: Touch me if you dare
C: anon.
O: Ireland
B: Francis O'Neill: "The Dance Music of Ireland" (1907) no. 631
R: Reel
Z: Transcribed by Frank Nordberg - http://www.musicaviva.com
F: http://www.musicaviva.com/abc/tunes/ireland/oneill-1001/oneill-1001-063
1.abc
m: ~n2 = o/4n/m/4n
M: C|
L: 1/8
K: G
dc|BG~G2 AGED|BGGd Bdgd|BG~ G2 AGED|EAAB A2dc|BG~G2 AGED|BGGd Bdgd|B2BG A
GED|EGGA G2||
z2|dega b2ag|(3(efg) dg egdB|dega b2ag|eaab a2ge|dega b2ag|(3(efg) dg egd
c|B2BG AGED|EGGA G2|]
W:
W:
W: From Musica Viva - http://www.musicaviva.com
W: the Internet center for free sheet music downloads.


